web-components-icons/e900-file/SVG/group-section.svg

<?xml version="1.0" encoding="utf-8"?>
<!-- Generator: Adobe Illustrator 24.2.0, SVG Export Plug-In . SVG Version: 6.00 Build 0)  -->
<svg version="1.1" id="Layer_1" xmlns="http://www.w3.org/2000/svg" xmlns:xlink="http://www.w3.org/1999/xlink" x="0px" y="0px"
	 width="512px" height="512px" viewBox="0 0 512 512" xml:space="preserve">
<path d="M128,416l32,32H32V32h128l-32,32H64v352H128z M448,128H128v32h320V128z M448,320H128v32h320V320z M448,224H128v32h320V224z"
	/>
</svg>

<svg xmlns="http://www.w3.org/2000/svg" viewBox="0 0 512 512"><title>group-section</title><g id="group_section" data-name="group section"><path d="M128,416l32,32H32V32H160L128,64H64V416ZM448,128H128v32H448Zm0,192H128v32H448Zm0-96H128v32H448Z"/></g></svg>
